_editor/libs/builder/icons/left-column-layout.svg

<svg viewBox="0 -64 512 512" xmlns="http://www.w3.org/2000/svg"><path d="m61.812-4.921h394.856v394.856h-394.856v-376.908zm24.678 22.435v349.002h167.336v-349.002zm190.698 0v351.182h156.082v-351.182z" fill="#4d4d4d" stroke-width="1.12175"/><path d="m86.49 190.924v-175.59h167.336v351.182h-167.336z" fill="#808080" fill-opacity=".270588" stroke-width="1.26917"/></svg>

<svg viewBox="0 -64 512 512" xmlns="http://www.w3.org/2000/svg"><path d="M61.812-4.921h394.856v394.856H61.812V13.027ZM86.49 17.514v349.002h167.336V17.514Zm190.698 0v351.182H433.27V17.514Z" fill="#4d4d4d" style="stroke-width:1.12175"/><path d="M86.49 190.924V15.334h167.336v351.182H86.49Z" fill="gray" fill-opacity=".329" style="fill:gray;fill-opacity:.27058825;stroke-width:1.26917"/></svg>
